ix/setting_outline.svg

<svg viewBox="0 0 24 24" fill="none" xmlns="http://www.w3.org/2000/svg" height="1em" width="1em">
  <path d="M12.0002 22.6298C11.3302 22.6298 10.6502 22.4798 10.1202 22.1698L4.62023 18.9998C2.38023 17.4898 2.24023 17.2598 2.24023 14.8898V9.1098C2.24023 6.7398 2.37023 6.5098 4.57023 5.0198L10.1102 1.8198C11.1602 1.2098 12.8102 1.2098 13.8602 1.8198L19.3802 4.9998C21.6202 6.5098 21.7602 6.7398 21.7602 9.1098V14.8798C21.7602 17.2498 21.6302 17.4798 19.4302 18.9698L13.8902 22.1698C13.3502 22.4798 12.6702 22.6298 12.0002 22.6298ZM12.0002 2.8698C11.5802 2.8698 11.1702 2.9498 10.8802 3.1198L5.38023 6.2998C3.75023 7.3998 3.75023 7.3998 3.75023 9.1098V14.8798C3.75023 16.5898 3.75023 16.5898 5.42023 17.7198L10.8802 20.8698C11.4702 21.2098 12.5402 21.2098 13.1302 20.8698L18.6302 17.6898C20.2502 16.5898 20.2502 16.5898 20.2502 14.8798V9.1098C20.2502 7.3998 20.2502 7.3998 18.5802 6.2698L13.1202 3.1198C12.8302 2.9498 12.4202 2.8698 12.0002 2.8698Z" fill="#292D32"/>
  <path d="M12 15.75C9.93 15.75 8.25 14.07 8.25 12C8.25 9.93 9.93 8.25 12 8.25C14.07 8.25 15.75 9.93 15.75 12C15.75 14.07 14.07 15.75 12 15.75ZM12 9.75C10.76 9.75 9.75 10.76 9.75 12C9.75 13.24 10.76 14.25 12 14.25C13.24 14.25 14.25 13.24 14.25 12C14.25 10.76 13.24 9.75 12 9.75Z" fill="#292D32"/>
</svg>

<svg viewBox="0 0 24 24" fill="none" xmlns="http://www.w3.org/2000/svg" height="1em" width="1em">
  <path d="M12 22.63c-.67 0-1.35-.15-1.88-.46L4.62 19c-2.24-1.51-2.38-1.74-2.38-4.11V9.11c0-2.37.13-2.6 2.33-4.09l5.54-3.2c1.05-.61 2.7-.61 3.75 0L19.38 5c2.24 1.51 2.38 1.74 2.38 4.11v5.77c0 2.37-.13 2.6-2.33 4.09l-5.54 3.2c-.54.31-1.22.46-1.89.46Zm0-19.76c-.42 0-.83.08-1.12.25L5.38 6.3C3.75 7.4 3.75 7.4 3.75 9.11v5.77c0 1.71 0 1.71 1.67 2.84l5.46 3.15c.59.34 1.66.34 2.25 0l5.5-3.18c1.62-1.1 1.62-1.1 1.62-2.81V9.11c0-1.71 0-1.71-1.67-2.84l-5.46-3.15c-.29-.17-.7-.25-1.12-.25Z" fill="#292D32"/>
  <path d="M12 15.75c-2.07 0-3.75-1.68-3.75-3.75 0-2.07 1.68-3.75 3.75-3.75 2.07 0 3.75 1.68 3.75 3.75 0 2.07-1.68 3.75-3.75 3.75Zm0-6c-1.24 0-2.25 1.01-2.25 2.25s1.01 2.25 2.25 2.25 2.25-1.01 2.25-2.25S13.24 9.75 12 9.75Z" fill="#292D32"/>
</svg>
